src/img/HomePage/Crystals/Mid.svg

<?xml version="1.0" encoding="UTF-8"?> <svg xmlns="http://www.w3.org/2000/svg" width="93" height="94" viewBox="0 0 93 94" fill="none"> <path d="M55.6153 14.6676C47.9274 10.1338 46.4884 8.67009 47.3702 6.26963C47.9572 4.67018 49.6426 3.29489 51.1167 3.2125C52.5903 3.12859 57.7706 2.41106 62.6277 1.61508C72.6022 -0.0193087 81.6125 -0.0882169 80.8682 1.47472C80.5956 2.04979 78.5044 2.38075 76.2219 2.21339C73.9404 2.04398 67.1675 2.58577 61.1709 3.41591C46.397 5.46123 45.3861 8.11178 57.2561 13.676C64.7073 17.1687 66.7389 17.4143 71.3962 15.3835C74.3872 14.079 76.6952 12.6781 76.5225 12.2705C75.4887 9.81343 69.1111 7.42778 63.5197 7.40427C52.1204 7.35525 61.6263 5.43297 75.2353 5.03429C90.0026 4.60164 93.4355 3.90443 86.7846 2.68374C81.6138 1.73468 82.8387 0.590005 88.1459 1.4108C90.0578 1.70726 91.9474 2.8739 92.3464 4.0043C93.2359 6.52422 90.0435 8.68719 75.8979 15.1493L64.9275 20.1601L55.6153 14.6676Z" fill="#FA007A"></path> <path d="M20.2731 73.6796C14.762 70.1736 12.9927 65.8682 15.0429 60.9456C17.0707 56.0753 21.6692 54.672 27.357 57.1869C32.2544 59.3538 36.5903 67.8023 34.2812 70.6776C33.6066 71.519 33.9277 73.367 34.9974 74.7855C36.0656 76.2045 36.5207 77.5129 36.0087 77.6936C33.4683 78.5903 24.3273 76.2582 20.2731 73.6796Z" fill="#FA007A"></path> <path d="M59.7054 62.2094C56.6835 63.9799 44.5914 61.1116 43.6151 58.3939C42.6838 55.8036 48.0191 54.1486 51.1824 56.0465C52.5984 56.8963 55.3121 57.2796 57.213 56.9C61.3873 56.0656 63.2856 60.1107 59.7054 62.2094Z" fill="#FA007A"></path> <path d="M1.67511 92.1218C0.829629 91.1269 0.617848 89.0016 1.20586 87.4001C2.47688 83.937 2.62801 83.8648 7.08853 84.5534C10.3157 85.0536 13.15 89.1467 11.9755 91.613C11.0425 93.5748 3.23757 93.9594 1.67511 92.1218Z" fill="#FA007A"></path> </svg>

<svg xmlns="http://www.w3.org/2000/svg" width="93" height="94" fill="none"><path d="M55.615 14.668c-7.688-4.534-9.127-5.998-8.245-8.398.587-1.6 2.273-2.975 3.747-3.057 1.473-.084 6.654-.802 11.51-1.598 9.975-1.634 18.985-1.703 18.241-.14-.272.575-2.364.906-4.646.738-2.282-.169-9.054.373-15.051 1.203-14.774 2.045-15.785 4.696-3.915 10.26 7.451 3.493 9.483 3.738 14.14 1.707 2.991-1.304 5.3-2.705 5.126-3.112-1.033-2.458-7.41-4.843-13.002-4.867-11.4-.049-1.894-1.971 11.715-2.37 14.768-.432 18.2-1.13 11.55-2.35-5.171-.95-3.946-2.094 1.36-1.273 1.913.296 3.802 1.463 4.201 2.593.89 2.52-2.303 4.683-16.448 11.145l-10.97 5.011-9.313-5.492ZM20.273 73.68c-5.511-3.506-7.28-7.812-5.23-12.734 2.028-4.87 6.626-6.274 12.314-3.76 4.897 2.168 9.233 10.616 6.924 13.492-.674.841-.353 2.689.716 4.108 1.069 1.418 1.524 2.727 1.012 2.908-2.54.896-11.682-1.436-15.736-4.014ZM59.705 62.21c-3.021 1.77-15.114-1.098-16.09-3.816-.931-2.59 4.404-4.245 7.567-2.347 1.416.85 4.13 1.233 6.031.853 4.174-.834 6.073 3.21 2.492 5.31ZM1.675 92.122c-.845-.995-1.057-3.12-.47-4.722 1.272-3.463 1.423-3.535 5.884-2.847 3.227.5 6.061 4.594 4.886 7.06-.932 1.962-8.737 2.346-10.3.509Z" fill="#FA007A"/></svg>
